ubersicht/widgets/weather.widget/lib/icons/sun-shower.svg

<svg xmlns="http://www.w3.org/2000/svg" xml:space="preserve" style="fill-rule:evenodd;clip-rule:evenodd;stroke-linejoin:round;stroke-miterlimit:2" viewBox="0 0 200 200">
    <path d="M-2660.752-1175.76h3426.96v2296.67h-3426.96z"/>
    <path d="M110.76-68.766h207.368v187.4H110.76z" style="fill:none" transform="matrix(.96447 0 0 1.06723 -106.82 73.389)"/>
    <path d="M288.427 112.504a34.6 34.6 0 0 1-1.249-9.244c0-19.119 15.522-34.642 34.642-34.642 19.119 0 34.642 15.523 34.642 34.642 0 3.213-.439 6.325-1.259 9.278z" style="fill:#fff700" transform="matrix(1.13837 -.00057 .00057 1.13836 -266.404 -17.365)"/>
    <path d="m93.516 33.513-.039-16s.032-2.088.472-3c.481-1 1.473-2.378 2.418-3 1.175-.774 2.495-1.206 3.795-1.178s2.959.651 4 1.347c1.001.67 1.794 1.859 2.245 2.831.425.918.46 3 .46 3l-.005 16s-.062 1.429-.61 2.701c-.428.995-1.284 1.817-1.774 2.299-1.094 1.074-2.874 1.585-4.316 1.585-1.443 0-3.246-.501-4.339-1.585-.487-.482-1.389-1.421-1.802-2.416-.527-1.272-.505-2.584-.505-2.584" style="fill:#ff0" transform="translate(20.998 19.996)scale(.7887)"/>
    <path d="m93.516 33.513-.039-16s.032-2.088.472-3c.481-1 1.473-2.378 2.418-3 1.175-.774 2.495-1.206 3.795-1.178s2.959.651 4 1.347c1.001.67 1.794 1.859 2.245 2.831.425.918.46 3 .46 3l-.005 16s-.062 1.429-.61 2.701c-.428.995-1.284 1.817-1.774 2.299-1.094 1.074-2.874 1.585-4.316 1.585-1.443 0-3.246-.501-4.339-1.585-.487-.482-1.389-1.421-1.802-2.416-.527-1.272-.505-2.584-.505-2.584" style="fill:#ff0" transform="matrix(.68304 -.39435 .39435 .68303 -8.419 70.217)"/>
    <path d="m93.516 33.513-.039-16s.032-2.088.472-3c.481-1 1.473-2.378 2.418-3 1.175-.774 2.495-1.206 3.795-1.178s2.959.651 4 1.347c1.001.67 1.794 1.859 2.245 2.831.425.918.46 3 .46 3l-.005 16s-.062 1.429-.61 2.701c-.428.995-1.284 1.817-1.774 2.299-1.094 1.074-2.874 1.585-4.316 1.585-1.443 0-3.246-.501-4.339-1.585-.487-.482-1.389-1.421-1.802-2.416-.527-1.272-.505-2.584-.505-2.584" style="fill:#ff0" transform="matrix(.39435 -.68303 .68304 .39435 -8.784 128.419)"/>
    <path d="m93.516 33.513-.039-16s.032-2.088.472-3c.481-1 1.473-2.378 2.418-3 1.175-.774 2.495-1.206 3.795-1.178s2.959.651 4 1.347c1.001.67 1.794 1.859 2.245 2.831.425.918.46 3 .46 3l-.005 16s-.062 1.429-.61 2.701c-.428.995-1.284 1.817-1.774 2.299-1.094 1.074-2.874 1.585-4.316 1.585-1.443 0-3.246-.501-4.339-1.585-.487-.482-1.389-1.421-1.802-2.416-.527-1.272-.505-2.584-.505-2.584" style="fill:#ff0" transform="matrix(0 -.7887 .7887 0 20 179.005)"/>
    <path d="m93.516 33.513-.039-16s.032-2.088.472-3c.481-1 1.473-2.378 2.418-3 1.175-.774 2.495-1.206 3.795-1.178s2.959.651 4 1.347c1.001.67 1.794 1.859 2.245 2.831.425.918.46 3 .46 3l-.005 16s-.062 1.429-.61 2.701c-.428.995-1.284 1.817-1.774 2.299-1.094 1.074-2.874 1.585-4.316 1.585-1.443 0-3.246-.501-4.339-1.585-.487-.482-1.389-1.421-1.802-2.416-.527-1.272-.505-2.584-.505-2.584" style="fill:#ff0" transform="rotate(90 79.507 100.501)scale(.7887)"/>
    <path d="m93.516 33.513-.039-16s.032-2.088.472-3c.481-1 1.473-2.378 2.418-3 1.175-.774 2.495-1.206 3.795-1.178s2.959.651 4 1.347c1.001.67 1.794 1.859 2.245 2.831.425.918.46 3 .46 3l-.005 16s-.062 1.429-.61 2.701c-.428.995-1.284 1.817-1.774 2.299-1.094 1.074-2.874 1.585-4.316 1.585-1.443 0-3.246-.501-4.339-1.585-.487-.482-1.389-1.421-1.802-2.416-.527-1.272-.505-2.584-.505-2.584" style="fill:#ff0" transform="matrix(.39435 .68303 -.68304 .39435 129.788 -8.423)"/>
    <path d="m93.516 33.513-.039-16s.032-2.088.472-3c.481-1 1.473-2.378 2.418-3 1.175-.774 2.495-1.206 3.795-1.178s2.959.651 4 1.347c1.001.67 1.794 1.859 2.245 2.831.425.918.46 3 .46 3l-.005 16s-.062 1.429-.61 2.701c-.428.995-1.284 1.817-1.774 2.299-1.094 1.074-2.874 1.585-4.316 1.585-1.443 0-3.246-.501-4.339-1.585-.487-.482-1.389-1.421-1.802-2.416-.527-1.272-.505-2.584-.505-2.584" style="fill:#ff0" transform="matrix(.68304 .39435 -.39435 .68303 71.586 -8.789)"/>
    <circle cx="593.82" cy="187.851" r="5.069" style="fill:#0e00ff" transform="matrix(1.64744 0 0 1.64743 -948.374 -174.553)"/>
    <circle cx="593.82" cy="187.851" r="5.069" style="fill:#0e00ff" transform="matrix(1.64744 0 0 1.64743 -901.63 -174.553)"/>
    <circle cx="593.82" cy="187.851" r="5.069" style="fill:#0e00ff" transform="matrix(1.64744 0 0 1.64743 -854.892 -174.553)"/>
    <circle cx="593.82" cy="187.851" r="5.069" style="fill:#0e00ff" transform="matrix(1.64744 0 0 1.64743 -922.814 -146.521)"/>
    <circle cx="593.82" cy="187.851" r="5.069" style="fill:#0e00ff" transform="matrix(1.64744 0 0 1.64743 -876.07 -146.521)"/>
    <circle cx="593.82" cy="187.851" r="5.069" style="fill:#0e00ff" transform="matrix(1.64744 0 0 1.64743 -829.331 -146.521)"/>
    <circle cx="593.82" cy="187.851" r="5.069" style="fill:#0e00ff" transform="matrix(1.64744 0 0 1.64743 -808.178 -174.553)"/>
</svg>

<?xml version="1.0" encoding="UTF-8" standalone="no"?>
<!DOCTYPE svg PUBLIC "-//W3C//DTD SVG 1.1//EN" "http://www.w3.org/Graphics/SVG/1.1/DTD/svg11.dtd">
<svg width="100%" height="100%" viewBox="0 0 200 200" version="1.1" xmlns="http://www.w3.org/2000/svg" xmlns:xlink="http://www.w3.org/1999/xlink" xml:space="preserve" xmlns:serif="http://www.serif.com/" style="fill-rule:evenodd;clip-rule:evenodd;stroke-linejoin:round;stroke-miterlimit:2;">
    <g transform="matrix(1,0,0,1,-1896.02,-262.903)">
        <g transform="matrix(1,0,0,1,292.408,-172.397)">
            <rect x="-1057.14" y="-740.46" width="3426.96" height="2296.67"/>
        </g>
        <g id="SunShower" transform="matrix(0.964471,0,0,1.06723,1789.2,336.292)">
            <rect x="110.76" y="-68.766" width="207.368" height="187.4" style="fill:none;"/>
            <g transform="matrix(1.18031,-0.000534223,0.000591143,1.06665,-165.463,-85.0368)">
                <path d="M288.427,112.504C287.613,109.561 287.178,106.461 287.178,103.26C287.178,84.141 302.7,68.618 321.82,68.618C340.939,68.618 356.462,84.141 356.462,103.26C356.462,106.473 356.023,109.585 355.203,112.538L288.427,112.504Z" style="fill:rgb(255,247,0);"/>
            </g>
            <g transform="matrix(0.817757,0,0,0.739016,132.527,-50.0298)">
                <path d="M93.516,33.513L93.477,17.513C93.477,17.513 93.509,15.425 93.949,14.513C94.43,13.513 95.422,12.135 96.367,11.513C97.542,10.739 98.862,10.307 100.162,10.335C101.461,10.363 103.121,10.986 104.162,11.682C105.163,12.352 105.956,13.541 106.407,14.513C106.832,15.431 106.867,17.513 106.867,17.513L106.862,33.513C106.862,33.513 106.8,34.942 106.252,36.214C105.824,37.209 104.968,38.031 104.478,38.513C103.384,39.587 101.604,40.098 100.162,40.098C98.719,40.098 96.916,39.597 95.823,38.513C95.336,38.031 94.434,37.092 94.021,36.097C93.494,34.825 93.516,33.513 93.516,33.513Z" style="fill:rgb(255,255,0);"/>
            </g>
            <g transform="matrix(0.708199,-0.369508,0.408879,0.640007,102.026,-2.97217)">
                <path d="M93.516,33.513L93.477,17.513C93.477,17.513 93.509,15.425 93.949,14.513C94.43,13.513 95.422,12.135 96.367,11.513C97.542,10.739 98.862,10.307 100.162,10.335C101.461,10.363 103.121,10.986 104.162,11.682C105.163,12.352 105.956,13.541 106.407,14.513C106.832,15.431 106.867,17.513 106.867,17.513L106.862,33.513C106.862,33.513 106.8,34.942 106.252,36.214C105.824,37.209 104.968,38.031 104.478,38.513C103.384,39.587 101.604,40.098 100.162,40.098C98.719,40.098 96.916,39.597 95.823,38.513C95.336,38.031 94.434,37.092 94.021,36.097C93.494,34.825 93.516,33.513 93.516,33.513Z" style="fill:rgb(255,255,0);"/>
            </g>
            <g transform="matrix(0.408879,-0.640007,0.708199,0.369508,101.647,51.563)">
                <path d="M93.516,33.513L93.477,17.513C93.477,17.513 93.509,15.425 93.949,14.513C94.43,13.513 95.422,12.135 96.367,11.513C97.542,10.739 98.862,10.307 100.162,10.335C101.461,10.363 103.121,10.986 104.162,11.682C105.163,12.352 105.956,13.541 106.407,14.513C106.832,15.431 106.867,17.513 106.867,17.513L106.862,33.513C106.862,33.513 106.8,34.942 106.252,36.214C105.824,37.209 104.968,38.031 104.478,38.513C103.384,39.587 101.604,40.098 100.162,40.098C98.719,40.098 96.916,39.597 95.823,38.513C95.336,38.031 94.434,37.092 94.021,36.097C93.494,34.825 93.516,33.513 93.516,33.513Z" style="fill:rgb(255,255,0);"/>
            </g>
            <g transform="matrix(-4.37818e-17,-0.739016,0.817757,2.18909e-16,131.492,98.9631)">
                <path d="M93.516,33.513L93.477,17.513C93.477,17.513 93.509,15.425 93.949,14.513C94.43,13.513 95.422,12.135 96.367,11.513C97.542,10.739 98.862,10.307 100.162,10.335C101.461,10.363 103.121,10.986 104.162,11.682C105.163,12.352 105.956,13.541 106.407,14.513C106.832,15.431 106.867,17.513 106.867,17.513L106.862,33.513C106.862,33.513 106.8,34.942 106.252,36.214C105.824,37.209 104.968,38.031 104.478,38.513C103.384,39.587 101.604,40.098 100.162,40.098C98.719,40.098 96.916,39.597 95.823,38.513C95.336,38.031 94.434,37.092 94.021,36.097C93.494,34.825 93.516,33.513 93.516,33.513Z" style="fill:rgb(255,255,0);"/>
            </g>
            <g transform="matrix(-1.31345e-16,0.739016,-0.817757,-2.62691e-16,297.395,-49.0944)">
                <path d="M93.516,33.513L93.477,17.513C93.477,17.513 93.509,15.425 93.949,14.513C94.43,13.513 95.422,12.135 96.367,11.513C97.542,10.739 98.862,10.307 100.162,10.335C101.461,10.363 103.121,10.986 104.162,11.682C105.163,12.352 105.956,13.541 106.407,14.513C106.832,15.431 106.867,17.513 106.867,17.513L106.862,33.513C106.862,33.513 106.8,34.942 106.252,36.214C105.824,37.209 104.968,38.031 104.478,38.513C103.384,39.587 101.604,40.098 100.162,40.098C98.719,40.098 96.916,39.597 95.823,38.513C95.336,38.031 94.434,37.092 94.021,36.097C93.494,34.825 93.516,33.513 93.516,33.513Z" style="fill:rgb(255,255,0);"/>
            </g>
            <g transform="matrix(0.408879,0.640007,-0.708199,0.369508,245.324,-76.6585)">
                <path d="M93.516,33.513L93.477,17.513C93.477,17.513 93.509,15.425 93.949,14.513C94.43,13.513 95.422,12.135 96.367,11.513C97.542,10.739 98.862,10.307 100.162,10.335C101.461,10.363 103.121,10.986 104.162,11.682C105.163,12.352 105.956,13.541 106.407,14.513C106.832,15.431 106.867,17.513 106.867,17.513L106.862,33.513C106.862,33.513 106.8,34.942 106.252,36.214C105.824,37.209 104.968,38.031 104.478,38.513C103.384,39.587 101.604,40.098 100.162,40.098C98.719,40.098 96.916,39.597 95.823,38.513C95.336,38.031 94.434,37.092 94.021,36.097C93.494,34.825 93.516,33.513 93.516,33.513Z" style="fill:rgb(255,255,0);"/>
            </g>
            <g transform="matrix(0.708199,0.369508,-0.408879,0.640007,184.978,-77.0009)">
                <path d="M93.516,33.513L93.477,17.513C93.477,17.513 93.509,15.425 93.949,14.513C94.43,13.513 95.422,12.135 96.367,11.513C97.542,10.739 98.862,10.307 100.162,10.335C101.461,10.363 103.121,10.986 104.162,11.682C105.163,12.352 105.956,13.541 106.407,14.513C106.832,15.431 106.867,17.513 106.867,17.513L106.862,33.513C106.862,33.513 106.8,34.942 106.252,36.214C105.824,37.209 104.968,38.031 104.478,38.513C103.384,39.587 101.604,40.098 100.162,40.098C98.719,40.098 96.916,39.597 95.823,38.513C95.336,38.031 94.434,37.092 94.021,36.097C93.494,34.825 93.516,33.513 93.516,33.513Z" style="fill:rgb(255,255,0);"/>
            </g>
            <g transform="matrix(1.70813,0,0,1.54365,-872.555,-232.323)">
                <circle cx="593.82" cy="187.851" r="5.069" style="fill:rgb(14,0,255);"/>
            </g>
            <g transform="matrix(1.70813,0,0,1.54365,-824.09,-232.323)">
                <circle cx="593.82" cy="187.851" r="5.069" style="fill:rgb(14,0,255);"/>
            </g>
            <g transform="matrix(1.70813,0,0,1.54365,-775.629,-232.323)">
                <circle cx="593.82" cy="187.851" r="5.069" style="fill:rgb(14,0,255);"/>
            </g>
            <g transform="matrix(1.70813,0,0,1.54365,-846.053,-206.057)">
                <circle cx="593.82" cy="187.851" r="5.069" style="fill:rgb(14,0,255);"/>
            </g>
            <g transform="matrix(1.70813,0,0,1.54365,-797.588,-206.057)">
                <circle cx="593.82" cy="187.851" r="5.069" style="fill:rgb(14,0,255);"/>
            </g>
            <g transform="matrix(1.70813,0,0,1.54365,-749.127,-206.057)">
                <circle cx="593.82" cy="187.851" r="5.069" style="fill:rgb(14,0,255);"/>
            </g>
            <g transform="matrix(1.70813,0,0,1.54365,-727.195,-232.323)">
                <circle cx="593.82" cy="187.851" r="5.069" style="fill:rgb(14,0,255);"/>
            </g>
        </g>
    </g>
</svg>
